X: 12
T: Five Mile Chase, The
Z: Thady Quill
S: https://thesession.org/tunes/458#setting52681
R: reel
M: 4/4
L: 1/8
K: Gmaj
||G3B dGBG|EGDG EGDE|G2BG dGBd|egfg gedB|
|GBc/B/A/B/ dGBG|EGDG EGDE|(3GBG BG dGBd|egfa g2ef||
||gd ~d2 edBd|egbg agef|gd ~d2 edBd|egfa g>def|
|g2bg efge|dedc BGBd|egfg edBd | e2fa gedB ||

%-------------------- TUNE SEPARATOR --------------------%

